media/img/discord_white.svg

<svg fill="none" height="30" viewBox="0 0 30 30" width="30" xmlns="http://www.w3.org/2000/svg"><path d="m23.5531 7.02934c-1.6133-.70787-3.3434-1.22939-5.1523-1.52809-.0329-.00576-.0658.00864-.0828.03746-.2225.37841-.469.87208-.6415 1.2601-1.9456-.27852-3.8812-.27852-5.7869 0-.1726-.39664-.428-.88169-.6515-1.2601-.017-.02785-.0499-.04226-.0828-.03746-1.8079.29775-3.53795.81927-5.15228 1.52809-.01398.00576-.02596.01537-.03391.02785-3.28155 4.68801-4.1805 9.26071-3.73951 13.77681.002.0221.01497.0432.03293.0566 2.16507 1.5204 4.26232 2.4434 6.32061 3.0552.03294.0096.06785-.0019.08881-.0278.48689-.6358.92091-1.3062 1.29304-2.0112.02196-.0413.001-.0903-.04389-.1066-.68842-.2497-1.34395-.5542-1.97451-.9-.04988-.0278-.05387-.096-.00799-.1287.1327-.0951.26543-.194.39213-.2939.02292-.0182.05487-.0221.08182-.0105 4.14255 1.8085 8.62735 1.8085 12.72105 0 .0269-.0125.0589-.0087.0828.0096.1267.0998.2594.1997.3931.2948.0459.0327.0429.1009-.007.1287-.6305.3525-1.2861.6503-1.9755.899-.0449.0163-.0648.0663-.0429.1076.3801.704.8142 1.3744 1.2921 2.0102.0199.0269.0558.0384.0888.0288 2.0683-.6118 4.1655-1.5348 6.3306-3.0552.0189-.0134.0309-.0336.0329-.0557.5278-5.221-.884-9.7563-3.7425-13.77676-.007-.01343-.0189-.02304-.0329-.0288zm-12.9695 11.05486c-1.24718 0-2.27483-1.0949-2.27483-2.4396 0-1.3446 1.00772-2.4395 2.27483-2.4395 1.2771 0 2.2948 1.1045 2.2748 2.4395 0 1.3447-1.0077 2.4396-2.2748 2.4396zm8.4109 0c-1.2472 0-2.2749-1.0949-2.2749-2.4396 0-1.3446 1.0077-2.4395 2.2749-2.4395 1.2771 0 2.2947 1.1045 2.2748 2.4395 0 1.3447-.9977 2.4396-2.2748 2.4396z" fill="#fff"/></svg>

<svg width="30" height="30" viewBox="0 0 30 30" fill="none" xmlns="http://www.w3.org/2000/svg">
<path d="M23.5531 7.02934C21.9398 6.32147 20.2097 5.79995 18.4008 5.50125C18.3679 5.49549 18.335 5.50989 18.318 5.53871C18.0955 5.91712 17.849 6.41079 17.6765 6.79881C15.7309 6.52029 13.7953 6.52029 11.8896 6.79881C11.717 6.40217 11.4616 5.91712 11.2381 5.53871C11.2211 5.51086 11.1882 5.49645 11.1553 5.50125C9.3474 5.799 7.61735 6.32052 6.00302 7.02934C5.98904 7.0351 5.97706 7.04471 5.96911 7.05719C2.68756 11.7452 1.78861 16.3179 2.2296 20.834C2.2316 20.8561 2.24457 20.8772 2.26253 20.8906C4.4276 22.411 6.52485 23.334 8.58314 23.9458C8.61608 23.9554 8.65099 23.9439 8.67195 23.918C9.15884 23.2822 9.59286 22.6118 9.96499 21.9068C9.98695 21.8655 9.96599 21.8165 9.9211 21.8002C9.23268 21.5505 8.57715 21.246 7.94659 20.9002C7.89671 20.8724 7.89272 20.8042 7.9386 20.7715C8.0713 20.6764 8.20403 20.5775 8.33073 20.4776C8.35365 20.4594 8.3856 20.4555 8.41255 20.4671C12.5551 22.2756 17.0399 22.2756 21.1336 20.4671C21.1605 20.4546 21.1925 20.4584 21.2164 20.4767C21.3431 20.5765 21.4758 20.6764 21.6095 20.7715C21.6554 20.8042 21.6524 20.8724 21.6025 20.9002C20.972 21.2527 20.3164 21.5505 19.627 21.7992C19.5821 21.8155 19.5622 21.8655 19.5841 21.9068C19.9642 22.6108 20.3983 23.2812 20.8762 23.917C20.8961 23.9439 20.932 23.9554 20.965 23.9458C23.0333 23.334 25.1305 22.411 27.2956 20.8906C27.3145 20.8772 27.3265 20.857 27.3285 20.8349C27.8563 15.6139 26.4445 11.0786 23.586 7.05814C23.579 7.04471 23.5671 7.0351 23.5531 7.02934ZM10.5836 18.0842C9.33642 18.0842 8.30877 16.9893 8.30877 15.6446C8.30877 14.3 9.31649 13.2051 10.5836 13.2051C11.8607 13.2051 12.8784 14.3096 12.8584 15.6446C12.8584 16.9893 11.8507 18.0842 10.5836 18.0842ZM18.9945 18.0842C17.7473 18.0842 16.7196 16.9893 16.7196 15.6446C16.7196 14.3 17.7273 13.2051 18.9945 13.2051C20.2716 13.2051 21.2892 14.3096 21.2693 15.6446C21.2693 16.9893 20.2716 18.0842 18.9945 18.0842Z" fill="white"/>
</svg>
